package/converter/svg/duotone/outdent.svg

<svg xmlns="http://www.w3.org/2000/svg" viewBox="0 0 448 512"><!-- Font Awesome Pro 6.0.0-alpha2 by @fontawesome - https://fontawesome.com License - https://fontawesome.com/license (Commercial License) --><defs><style>.fa-secondary{opacity:.4}</style></defs><path d="M416 416H32C14.326 416 0 430.326 0 448S14.326 480 32 480H416C433.674 480 448 465.674 448 448S433.674 416 416 416ZM32 96H416C433.674 96 448 81.674 448 64S433.674 32 416 32H32C14.326 32 0 46.326 0 64S14.326 96 32 96ZM416 288H224C206.326 288 192 302.326 192 320S206.326 352 224 352H416C433.674 352 448 337.674 448 320S433.674 288 416 288ZM416 160H224C206.326 160 192 174.326 192 192S206.326 224 224 224H416C433.674 224 448 209.674 448 192S433.674 160 416 160Z" class="fa-secondary"/><path d="M101.75 348.301C106.531 352.301 113.156 353.082 118.781 350.52C124.406 347.863 128 342.238 128 336.02V176.02C128 169.801 124.406 164.176 118.781 161.52C116.625 160.52 114.312 160.02 112 160.02C108.312 160.02 104.688 161.27 101.75 163.738L5.75 243.738C2.094 246.77 0 251.27 0 256.02S2.094 265.27 5.75 268.301L101.75 348.301Z" class="fa-primary"/></svg>

<svg xmlns="http://www.w3.org/2000/svg" viewBox="0 0 448 512"><!--! Font Awesome Pro 6.6.0 by @fontawesome - https://fontawesome.com License - https://fontawesome.com/license (Commercial License) Copyright 2024 Fonticons, Inc. --><defs><style>.fa-secondary{opacity:.4}</style></defs><path class="fa-secondary" d="M0 64C0 81.7 14.3 96 32 96l384 0c17.7 0 32-14.3 32-32s-14.3-32-32-32L32 32C14.3 32 0 46.3 0 64zM0 448c0 17.7 14.3 32 32 32l384 0c17.7 0 32-14.3 32-32s-14.3-32-32-32L32 416c-17.7 0-32 14.3-32 32zM192 192c0 17.7 14.3 32 32 32l192 0c17.7 0 32-14.3 32-32s-14.3-32-32-32l-192 0c-17.7 0-32 14.3-32 32zm0 128c0 17.7 14.3 32 32 32l192 0c17.7 0 32-14.3 32-32s-14.3-32-32-32l-192 0c-17.7 0-32 14.3-32 32z"/><path class="fa-primary" d="M.2 243.4c-8.2 6.4-8.2 18.9 0 25.3l101.9 79.3c10.5 8.2 25.8 .7 25.8-12.6V176.7c0-13.3-15.3-20.8-25.8-12.6L.2 243.4z"/></svg>
